X:5643
T:Rose Anne's Polka
O:england
M:4/4
L:1/8
K:A
E|A/2B/2A/2G/2 Ac B~B2c|A~A2c ea aE|A~A2c B~B2c|1AF EF D2D:|2AF EF D2D2|
|eA Ac ~B2Bc|eA Ac ea a3/2f/2|eA Ac ~B2Bc|AF EF D2D2:||


